X:1
T:Let all the lands with shouts of joy
T:Joseph Stephenson
T:p48, Church Harmony Sacred to Devotion, 4th ed. London: [c1763-1771]
T:This edition by Edmund Gooch released into the public domain, March 2011.
T:Let all the lands with shouts of joy
T:Ps: 65th. A 4 Voci.
T:Copyright © 
T:Copyright © 
C:Joseph Stephenson
Z:p48, Church Harmony
Z:Sacred to Devotion, 4th ed.
Z:London: [c1763-1771]
Z:Copyright ©
%%score [ 1 2 3 4 ]
L:1/8
M:3/4
K:G
V:1 treble nm="SOPRANO" snm="S."
V:2 treble nm="ALTO" snm="A."
V:3 treble-8 transpose=-12 nm="TENOR" snm="T."
V:4 bass nm="BASS" snm="B."
V:1
 d2 | B4 c2 | d4 G2 | (c3 B) A2 | G4 G2 | d4 d2 | (B2 c2) (AG) | F4 z2 | A2 G2 d2 | B4 G2 | %10
w: Through|all the|earth the|na- * tions|round Shall|thee their|God _ con- *|fess;|And with glad|hymns their|
w: Let|all the|lands with|shouts _ of|joy To|God their|voi- * ces _|raise;|Sing psalms in|ho- nour|
w: And|let them|say, How|dread- * ful,|Lord, In|all thy|works _ art _|thou!|To thy great|pow’r, thy|
 (G2 A2) (B>c) | d4 z2 | z6 | z6 | z4 G2 | (c>d cB) G2 | A2 F4 | G4 |] %18
w: aw- * ful _|dread|||Of|thy _ _ _ great|name ex-|press.|
w: of _ his _|name,|||And|spread _ _ _ his|glo- rious|praise.|
w: stub- * born _|foes|||Shall|all _ _ _ be|forced to|bow.|
V:2
 D2 | D4 E2 | F4 D2 | (E>F G2) F2 | D4 D2 | D4 B,2 | E4 E2 | D4 z2 | D2 D2 F2 | E4 G2 | (E3 F) G2 | %11
w: Through|all the|earth the|na- * * tions|round Shall|thee their|God con-|fess;|And with glad|hymns their|aw- * ful|
w: Let|all the|lands with|shouts _ _ of|joy To|God their|voi- ces|raise;|Sing psalms in|ho- nour|of _ his|
w: And|let them|say, How|dread- * * ful,|Lord, In|all thy|works art|thou!|To thy great|pow’r, thy|stub- * born|
 F4 z2 | z6 | z4 D2 | (G>A GF) E2 | (D6 | E2) (D3 C) | B,4 |] %18
w: dread||Of|thy _ _ _ great|name|_ ex- *|press.|
w: name,||And|spread _ _ _ his|glo-|* rious _|praise.|
w: foes||Shall|all _ _ _ be|forced|_ to _|bow.|
V:3
 G2 | (B3 A) G2 | (d3 c) B2 | (c>d e2) d2 | B4 B2 | A4 B2 | (G2 A2) (A/B/^c) | d4 z2 | d2 B2 A2 | %9
w: Through|all _ the|earth _ the|na- * * tions|round Shall|thee their|God _ con- * *|fess;|And with glad|
w: Let|all _ the|lands _ with|shouts _ _ of|joy To|God their|voi- * ces _ _|raise;|Sing psalms in|
w: And|let _ them|say, _ How|dread- * * ful,|Lord, In|all thy|works _ art _ _|thou!|To thy great|
 G4 B2 | c4 B2 | A4 z2 | z4 G2 | (c>d cB) A2 | (B3 A) G2 | A4 (B/c/d) | (cB) A4 | G4 |] %18
w: hymns their|aw- ful|dread|Of|thy _ _ _ great|name _ ex-|press, great _ _|name _ ex-|press.|
w: ho- nour|of his|name,|And|spread _ _ _ his|glo- * rious|praise, his _ _|glo- * rious|praise.|
w: pow’r, thy|stub- born|foes|Shall|all _ _ _ be|forced _ to|bow, be _ _|forced _ to|bow.|
V:4
 G,2 | (G,3 F,) E,2 | D,4 E,2 | C,4 D,2 | G,4 G,2 | F,4 G,2 | (B,2 A,2) A,,2 | D,4 z2 | %8
w: Through|all _ the|earth the|na- tions|round Shall|thee their|God _ con-|fess;|
w: Let|all _ the|lands with|shouts of|joy To|God their|voi- * ces|raise;|
w: And|let _ them|say, How|dread- ful,|Lord, In|all thy|works _ art|thou!|
 F,2 G,2 D,2 | E,4 E,2 | C,4 G,,2 | D,4 D,2 | (G,>A, G,F,) E,2 | %13
w: And with glad|hymns their|aw- ful|dread Of|thy _ _ _ great|
w: Sing psalms in|ho- nour|of his|name, And|spread _ _ _ his|
w: To thy great|pow’r, thy|stub- born|foes Shall|all _ _ _ be|
"^While this tune is headed 'Ps: 65th. A 4 Voci.', the text indicated to be sung for this tune is 'Let all the Lands withshouts of joy. &c.', the opening words of Ps. 66 N.V.Furthermore, Ps. 65 in the New Version, 'For thee, O God, our constant praise', is a Long Metre text, and so wouldnot fit this Common Metre tune without some splitting of notes. For these reasons, the text of Ps. 66 has beenpreferred.The alto part is given in the alto clef in the source: the order of staves in this edition is the same as in the source,and while no indication of which part is the treble and which is the tenor in this piece, the first piece in the bookstarts with a 'Treble solo', which is printed on the first stave of the four-stave system, all other staves having restsprinted." C,4 D,2 | %14
w: name ex-|
w: glo- rious|
w: forced to|
 G,,4 G,2 | F,4 G,2 | C,2 D,4 | G,,4 |] %18
w: press, of|thy great|name ex-|press.|
w: praise, and|spread his|glo- rious|praise.|
w: bow, shall|all be|forced to|bow.|

